www/assets/icons/switch_camera.svg

<svg xmlns="http://www.w3.org/2000/svg" width="24" height="24" viewBox="0 0 24 24" fill='currentColor'><path d="M20 5h-3.17L15 3H9L7.17 5H4c-1.1 0-2 .9-2 2v12c0 1.1.9 2 2 2h16c1.1 0 2-.9 2-2V7c0-1.1-.9-2-2-2m-5 11.5V14H9v2.5L5.5 13 9 9.5V12h6V9.5l3.5 3.5z"/></svg>

<svg width="24" height="24" viewBox="0 0 24 24" xmlns="http://www.w3.org/2000/svg" fill='currentColor'><path d="M20 5H16.83L15 3H9L7.17 5H4C2.9 5 2 5.9 2 7V19C2 20.1 2.9 21 4 21H20C21.1 21 22 20.1 22 19V7C22 5.9 21.1 5 20 5ZM15 16.5V14H9V16.5L5.5 13L9 9.5V12H15V9.5L18.5 13L15 16.5Z"/></svg>
